arkscan/icons/mexc.svg

<svg viewBox="0 0 20 14" fill="none" xmlns="http://www.w3.org/2000/svg">
  <path
    d="M11.1915 1.87311C12.052 0.382793 14.203 0.382793 15.0634 1.87311L19.6904 9.88726C20.5509 11.3776 19.4754 13.2405 17.7545 13.2405H8.50053C6.77966 13.2405 5.70412 11.3776 6.56455 9.88726L11.1915 1.87311Z"
    fill="#3A55A4" />
  <path opacity="0.77"
    d="M4.92981 1.87311C5.79024 0.382793 7.94133 0.382793 8.80176 1.87311L13.4287 9.88726C14.2892 11.3776 15.0475 13.2405 17.603 13.2405H2.23881C0.517949 13.2405 -0.55761 11.3776 0.302837 9.88726L4.92981 1.87311Z"
    fill="#2672FF" />
</svg>

<svg viewBox="0 0 20 14" fill="none" xmlns="http://www.w3.org/2000/svg"><path d="M11.191 1.873c.861-1.49 3.012-1.49 3.872 0l4.627 8.014c.86 1.49-.215 3.354-1.936 3.354H8.502c-1.721 0-2.797-1.863-1.936-3.354l4.626-8.014Z" fill="#3A55A4"/><path opacity=".77" d="M4.93 1.873c.86-1.49 3.011-1.49 3.872 0l4.627 8.014c.86 1.49 1.618 3.354 4.174 3.354H2.239c-1.721 0-2.797-1.863-1.936-3.354L4.93 1.873Z" fill="#2672FF"/></svg>
